X: 20141
M: C
L: 1/8
K: C
V: 1 staves=3
c2G>G G2c>d | e2c>c c2e>f | g2c2 (3(def)e2 | d2d>d d2G>G |\
c2G>G G2c>d | e2c>c c2e>f | g2c>d e2d2 | c2c>c c2 :|
|: z2 |\
d2G>G G2d>e | f2G>G G2f>d | e2c>e ggfe | d2d>d d2G>G |\
c2G>G G2c>e | d2G>G G2d>f | egcd e2d2 | c2c>c c2 :|
V: 2
z2 |\
E2E>E E2E>G | c2E>E E2c>d | e2E2 (3(Gcd)c2 | E2E>E E2z2 |\
E2E>E E2E>G | c2E>E E2E>G | [e2c2]E>G c2G2 | E2E>E E2 :|
|: z2 |\
E2E>E E2Ec | G2E>E E2B>d | cGEG c2G2 | E2E>E G2 :|
V: 3 clef=bass middle=d
z2 |\
c2c>c c2e2 | c2c>c c2g2 | c'2c2 e2c2 | G2G>G G2z2 |\
c2c>c c2e2 | c2c>c c2[g2e2] | c'2c2 g2G2 | c2c>c c2 :|
|: z2 |\
c2c>c c2e2 | c2c>c c2g2 | c'2c2 G2G2 | c2c>c c2 :|


